assets/images/icons/src/floppy-o.svg

<?xml version="1.0" encoding="utf-8"?>
<!-- Generated by IcoMoon.io -->
<!DOCTYPE svg PUBLIC "-//W3C//DTD SVG 1.1//EN" "http://www.w3.org/Graphics/SVG/1.1/DTD/svg11.dtd">
<svg version="1.1" xmlns="http://www.w3.org/2000/svg" xmlns:xlink="http://www.w3.org/1999/xlink" width="12" height="14" viewBox="0 0 12 14">
<path fill="#444444" d="M3 12h6v-3h-6v3zM10 12h1v-7q0-0.109-0.078-0.301t-0.156-0.27l-2.195-2.195q-0.078-0.078-0.266-0.156t-0.305-0.078v3.25q0 0.312-0.219 0.531t-0.531 0.219h-4.5q-0.312 0-0.531-0.219t-0.219-0.531v-3.25h-1v10h1v-3.25q0-0.312 0.219-0.531t0.531-0.219h6.5q0.312 0 0.531 0.219t0.219 0.531v3.25zM7 4.75v-2.5q0-0.102-0.074-0.176t-0.176-0.074h-1.5q-0.102 0-0.176 0.074t-0.074 0.176v2.5q0 0.102 0.074 0.176t0.176 0.074h1.5q0.102 0 0.176-0.074t0.074-0.176zM12 5v7.25q0 0.312-0.219 0.531t-0.531 0.219h-10.5q-0.312 0-0.531-0.219t-0.219-0.531v-10.5q0-0.312 0.219-0.531t0.531-0.219h7.25q0.312 0 0.688 0.156t0.594 0.375l2.188 2.187q0.219 0.219 0.375 0.594t0.156 0.688z"></path>
</svg>

<svg xmlns="http://www.w3.org/2000/svg" width="12" height="14" viewBox="0 0 12 14"><path fill="#444" d="M3 12h6V9H3v3zm7 0h1V5q0-.109-.078-.301t-.156-.27L8.571 2.234q-.078-.078-.266-.156T8 2v3.25q0 .312-.219.531T7.25 6h-4.5q-.312 0-.531-.219T2 5.25V2H1v10h1V8.75q0-.312.219-.531T2.75 8h6.5q.312 0 .531.219T10 8.75V12zM7 4.75v-2.5q0-.102-.074-.176T6.75 2h-1.5q-.102 0-.176.074T5 2.25v2.5q0 .102.074.176T5.25 5h1.5q.102 0 .176-.074T7 4.75zM12 5v7.25q0 .312-.219.531T11.25 13H.75q-.312 0-.531-.219T0 12.25V1.75q0-.312.219-.531T.75 1H8q.312 0 .688.156t.594.375l2.188 2.187q.219.219.375.594t.156.688z"/></svg>
